X: 48
T: 3rd Beekeeper, The
R: three-two
M: 3/2
K: Gdorian
G2g2 g4 f4|e3d c2de fefe|G2g2 g4 f4|e3d c2de dcBA|
G2g2 g4 f4|e3d c2de fefe|G2g2 g4f4|e3d c2de d4||
e3d c2d2 B3A|BAG2 G2AB cBcd|e3d c2d2 B3A|BAG2 GABA G2 G2|
e3d c2d2 B3A|BAG2 G2AB cBcd|e3d c2d2 B3A|BAG2 GABA G2 G2||

